symbols/web/exit_to_app/materialsymbolssharp/exit_to_app_grad200_48px.svg

<svg xmlns="http://www.w3.org/2000/svg" height="48" width="48"><path d="m20.6 34.5-2.7-2.8 5.9-5.9H5.45v-3.65H23.8l-5.9-5.9 2.7-2.75 10.45 10.45ZM5.45 42.75v-13.3H9.1v9.65h29.8V8.75H9.1v9.75H5.45V5.1h37.1v37.65Z"/></svg>

<svg xmlns="http://www.w3.org/2000/svg" height="48" width="48"><path d="M20.6 34.5 17.9 31.7 23.8 25.8H5.45V22.15H23.8L17.9 16.25L20.6 13.5L31.05 23.95ZM5.45 42.75V29.45H9.1V39.1H38.9V8.75H9.1V18.5H5.45V5.1H42.55V42.75Z"/></svg>
